X: 1
T: (Reel of) Stumpie
T: Wap an' Rowe
O: Trad (1734)
Z: 1999 John Chambers <jc:trillian.mit.edu>
S: printed page SRSNH 2.14 in the Concord Slow Scottish Session collection
R: march, polka, reel
M: 2/4
L: 1/8
K: A
|: d2 |\
"A"ce a2 | a/g/f/e/ a2 | ce ag/a/ | "Bm"bB "E7"B>d |\
"A"ce a2 | a/g/f/e/ a2 | ce "E7"B>d | "A"cA A :|
|: d2 |\
"A"ce ed/c/ | "D"df fe/d/ | "A"ce "F#m"f/e/c/A/ | "Bm"cB "E7"B e/d/ |\
"A"ce ed/c/ | "D"df fe/d/ | "A"ce "E7"B>d | "A"cA A :|
